_includes/icons/color-stripe.svg

<svg fill="#666" height="50" viewBox="0 0 48 48" width="50" xmlns="http://www.w3.org/2000/svg"><path d="m41.765625 38h-35.53125c-1.796875 0-3.234375-1.371094-3.234375-3.152344v-22.621093c0-1.78125 1.4375-3.226563 3.234375-3.226563h35.53125c1.792969 0 3.234375 1.445313 3.234375 3.226563v22.621093c0 1.78125-1.441406 3.152344-3.234375 3.152344z" fill="#03a9f4"/><path d="m36.847656 23.277344c.066407-1.101563.351563-1.613281.925782-1.613281.546875 0 .847656.527343.886718 1.613281zm4.105469.65625c0-1.230469-.269531-2.203125-.78125-2.882813-.539062-.699218-1.347656-1.050781-2.359375-1.050781-2.085937 0-3.394531 1.546875-3.394531 4.023438 0 1.382812.34375 2.425781 1.035156 3.082031.617188.597656 1.503906.894531 2.632813.894531 1.046875 0 2.015625-.25 2.632812-.65625l-.269531-1.6875c-.605469.332031-1.308594.511719-2.09375.511719-.472656 0-.808594-.101563-1.046875-.308594-.261719-.21875-.40625-.570312-.457031-1.074219h4.066406c.027344-.117187.035156-.679687.035156-.851562zm-9.894531 1.597656c-.222656.378906-.53125.582031-.890625.582031-.242188 0-.472656-.054687-.671875-.148437v-3.71875c.429687-.4375.816406-.488281.945312-.488281.628907 0 .941407.679687.941407 2.015625 0 .761718-.113282 1.351562-.324219 1.757812zm2.054687-4.820312c-.4375-.574219-1.058593-.855469-1.84375-.855469-.714843 0-1.34375.300781-1.933593.9375l-.144532-.785156h-2.191406v10.992187l2.480469-.414062.015625-2.800782c.390625.121094.78125.183594 1.132812.183594.628907 0 1.53125-.15625 2.234375-.925781.667969-.730469.996094-1.859375.996094-3.359375 0-1.324219-.246094-2.332031-.746094-2.972656zm-9.585937-.703125h2.472656v7.992187h-2.472656zm1.257812-.773438c.71875 0 1.300782-.59375 1.300782-1.3125 0-.734375-.585938-1.320312-1.300782-1.320312-.738281 0-1.324218.585937-1.324218 1.320312 0 .71875.585937 1.3125 1.324218 1.3125zm-2.320312.664063c-.707031 0-1.28125.375-1.492188 1.03125l-.152343-.917969h-2.167969v7.988281h2.480469v-5.25c.3125-.382812.75-.519531 1.363281-.519531.125 0 .257812 0 .4375.027344v-2.296875c-.183594-.039063-.332031-.0625-.46875-.0625zm-4.785156 1.957031.308593-1.847656h-1.601562v-2.246094l-2.128906.355469-.308594 1.890625-.75.121093-.277344 1.726563h1.023438v3.621094c0 .941406.238281 1.601562.722656 2 .421875.335937 1.011719.492187 1.84375.492187.652344 0 1.042969-.113281 1.296875-.183594v-1.960937c-.132813.042969-.480469.117187-.71875.117187-.480469 0-.703125-.25-.703125-.824218v-3.265625h1.292969zm-7.148438 1.195312c-.707031-.265625-1.117187-.472656-1.117187-.804687 0-.273438.226562-.433594.644531-.433594.738281 0 1.507812.28125 2.023437.542969l.300782-1.828125c-.417969-.203125-1.269532-.527344-2.441407-.527344-.839843 0-1.535156.21875-2.015625.621094-.53125.429687-.800781 1.042969-.800781 1.785156 0 1.347656.824219 1.917969 2.164063 2.402344.859375.308594 1.15625.527344 1.15625.867187 0 .324219-.273438.515625-.796875.515625-.625 0-1.640625-.308593-2.328125-.703125l-.28125 1.851563c.578125.324219 1.636718.660156 2.75.660156.886718 0 1.621093-.210937 2.101562-.605469.566406-.433593.84375-1.078125.84375-1.90625 0-1.382812-.84375-1.957031-2.203125-2.4375z" fill="#fff"/></svg>

<svg xmlns="http://www.w3.org/2000/svg" viewBox="0 0 48 48" width="50" height="50" fill="#666"><path d="M 41.765625 38 L 6.234375 38 C 4.4375 38 3 36.628906 3 34.847656 L 3 12.226563 C 3 10.445313 4.4375 9 6.234375 9 L 41.765625 9 C 43.558594 9 45 10.445313 45 12.226563 L 45 34.847656 C 45 36.628906 43.558594 38 41.765625 38 Z" fill="#03a9f4"/><path d="M 36.847656 23.277344 C 36.914063 22.175781 37.199219 21.664063 37.773438 21.664063 C 38.320313 21.664063 38.621094 22.191406 38.660156 23.277344 Z M 40.953125 23.933594 C 40.953125 22.703125 40.683594 21.730469 40.171875 21.050781 C 39.632813 20.351563 38.824219 20 37.8125 20 C 35.726563 20 34.417969 21.546875 34.417969 24.023438 C 34.417969 25.40625 34.761719 26.449219 35.453125 27.105469 C 36.070313 27.703125 36.957031 28 38.085938 28 C 39.132813 28 40.101563 27.75 40.71875 27.34375 L 40.449219 25.65625 C 39.84375 25.988281 39.140625 26.167969 38.355469 26.167969 C 37.882813 26.167969 37.546875 26.066406 37.308594 25.859375 C 37.046875 25.640625 36.902344 25.289063 36.851563 24.785156 L 40.917969 24.785156 C 40.945313 24.667969 40.953125 24.105469 40.953125 23.933594 Z M 31.058594 25.53125 C 30.835938 25.910156 30.527344 26.113281 30.167969 26.113281 C 29.925781 26.113281 29.695313 26.058594 29.496094 25.964844 L 29.496094 22.246094 C 29.925781 21.808594 30.3125 21.757813 30.441406 21.757813 C 31.070313 21.757813 31.382813 22.4375 31.382813 23.773438 C 31.382813 24.535156 31.269531 25.125 31.058594 25.53125 Z M 33.113281 20.710938 C 32.675781 20.136719 32.054688 19.855469 31.269531 19.855469 C 30.554688 19.855469 29.925781 20.15625 29.335938 20.792969 L 29.191406 20.007813 L 27 20.007813 L 27 31 L 29.480469 30.585938 L 29.496094 27.785156 C 29.886719 27.90625 30.277344 27.96875 30.628906 27.96875 C 31.257813 27.96875 32.160156 27.8125 32.863281 27.042969 C 33.53125 26.3125 33.859375 25.183594 33.859375 23.683594 C 33.859375 22.359375 33.613281 21.351563 33.113281 20.710938 Z M 23.527344 20.007813 L 26 20.007813 L 26 28 L 23.527344 28 Z M 24.785156 19.234375 C 25.503906 19.234375 26.085938 18.640625 26.085938 17.921875 C 26.085938 17.1875 25.5 16.601563 24.785156 16.601563 C 24.046875 16.601563 23.460938 17.1875 23.460938 17.921875 C 23.460938 18.640625 24.046875 19.234375 24.785156 19.234375 Z M 22.464844 19.898438 C 21.757813 19.898438 21.183594 20.273438 20.972656 20.929688 L 20.820313 20.011719 L 18.652344 20.011719 L 18.652344 28 L 21.132813 28 L 21.132813 22.75 C 21.445313 22.367188 21.882813 22.230469 22.496094 22.230469 C 22.621094 22.230469 22.753906 22.230469 22.933594 22.257813 L 22.933594 19.960938 C 22.75 19.921875 22.601563 19.898438 22.464844 19.898438 Z M 17.679688 21.855469 L 17.988281 20.007813 L 16.386719 20.007813 L 16.386719 17.761719 L 14.257813 18.117188 L 13.949219 20.007813 L 13.199219 20.128906 L 12.921875 21.855469 L 13.945313 21.855469 L 13.945313 25.476563 C 13.945313 26.417969 14.183594 27.078125 14.667969 27.476563 C 15.089844 27.8125 15.679688 27.96875 16.511719 27.96875 C 17.164063 27.96875 17.554688 27.855469 17.808594 27.785156 L 17.808594 25.824219 C 17.675781 25.867188 17.328125 25.941406 17.089844 25.941406 C 16.609375 25.941406 16.386719 25.691406 16.386719 25.117188 L 16.386719 21.851563 L 17.679688 21.851563 Z M 10.53125 23.050781 C 9.824219 22.785156 9.414063 22.578125 9.414063 22.246094 C 9.414063 21.972656 9.640625 21.8125 10.058594 21.8125 C 10.796875 21.8125 11.566406 22.09375 12.082031 22.355469 L 12.382813 20.527344 C 11.964844 20.324219 11.113281 20 9.941406 20 C 9.101563 20 8.40625 20.21875 7.925781 20.621094 C 7.394531 21.050781 7.125 21.664063 7.125 22.40625 C 7.125 23.753906 7.949219 24.324219 9.289063 24.808594 C 10.148438 25.117188 10.445313 25.335938 10.445313 25.675781 C 10.445313 26 10.171875 26.191406 9.648438 26.191406 C 9.023438 26.191406 8.007813 25.882813 7.320313 25.488281 L 7.039063 27.339844 C 7.617188 27.664063 8.675781 28 9.789063 28 C 10.675781 28 11.410156 27.789063 11.890625 27.394531 C 12.457031 26.960938 12.734375 26.316406 12.734375 25.488281 C 12.734375 24.105469 11.890625 23.53125 10.53125 23.050781 Z" fill="#fff"/></svg>
